images/direction-6.svg

<svg width="111" height="137" viewBox="0 0 111 137" fill="none" xmlns="http://www.w3.org/2000/svg">
<path d="M22.9508 74.3387L16.4371 51.77L14.9497 52.1993L21.4634 74.768L22.9508 74.3387Z" fill="black" stroke="black" stroke-width="0.5"/>
<path d="M96.2374 52.1983L94.75 51.769L88.2364 74.3377L89.7238 74.767L96.2374 52.1983Z" fill="black" stroke="black" stroke-width="0.5"/>
<path d="M105.992 104H5.12438C4.69936 104 4.35441 103.651 4.35441 103.221V83.1098L1.00967 62.1012C0.963471 61.8085 1.08513 61.5142 1.32536 61.3429L15.288 51.34C16.5938 43.0142 26.6419 3.29692 27.0746 1.58566C27.1793 1.17147 27.5998 0.919215 28.0078 1.02354C28.1002 1.0469 37.3953 3.35454 53.6062 3.35454C63.1569 3.35454 73.1988 2.56508 83.4471 1.00953C83.8506 0.955029 84.2094 1.1995 84.3079 1.58722C84.7406 3.29537 94.7749 42.9534 96.0884 51.3229L109.649 60.2405C109.903 60.4071 110.037 60.7092 109.991 61.0128L106.751 82.1428L106.762 103.221C106.762 103.429 106.68 103.626 106.537 103.773C106.394 103.919 106.197 104 105.992 104ZM5.89435 102.443H105.222V82.0229L108.393 61.2697L94.9581 52.4363C94.7718 52.3132 94.647 52.1155 94.6147 51.8944C93.6353 44.9683 84.371 8.13798 82.9851 2.65228C72.9001 4.15178 63.0198 4.91009 53.6062 4.91165C39.8007 4.91165 30.9183 3.24865 28.382 2.70522C26.9545 8.36532 17.7426 44.9917 16.7632 51.8959C16.7324 52.1077 16.6185 52.2961 16.446 52.4207L2.60812 62.3348L5.88665 82.9883L5.89435 102.443Z" fill="black" stroke="black" stroke-width="0.5"/>
<path d="M40.5 29C39.1215 29 38 27.8785 38 26.5C38 25.1215 39.1215 24 40.5 24C41.8785 24 43 25.1215 43 26.5C43 27.8785 41.8785 29 40.5 29ZM40.5 25.4775C39.9356 25.4775 39.4775 25.9371 39.4775 26.5C39.4775 27.0644 39.9371 27.5225 40.5 27.5225C41.0629 27.5225 41.5225 27.0629 41.5225 26.5C41.5225 25.9356 41.0644 25.4775 40.5 25.4775Z" fill="black" stroke="black" stroke-width="0.5"/>
<path d="M70.5007 29C69.1203 29 68 27.8785 68 26.5C68 25.1215 69.1218 24 70.5007 24C71.8797 24 73 25.1215 73 26.5C73 27.8785 71.8782 29 70.5007 29ZM70.5007 25.4775C69.9362 25.4775 69.478 25.9371 69.478 26.5C69.478 27.0644 69.9376 27.5225 70.5007 27.5225C71.0639 27.5225 71.522 27.0629 71.522 26.5C71.522 25.9356 71.0624 25.4775 70.5007 25.4775Z" fill="black" stroke="black" stroke-width="0.5"/>
<path d="M40.5 47C39.1215 47 38 45.8785 38 44.5C38 43.1215 39.1215 42 40.5 42C41.8785 42 43 43.1215 43 44.5C43 45.8785 41.8785 47 40.5 47ZM40.5 43.4775C39.9356 43.4775 39.4775 43.9371 39.4775 44.5C39.4775 45.0629 39.9371 45.5225 40.5 45.5225C41.0629 45.5225 41.5225 45.0629 41.5225 44.5C41.5225 43.9371 41.0644 43.4775 40.5 43.4775Z" fill="black" stroke="black" stroke-width="0.5"/>
<path d="M70.5007 47C69.1203 47 68 45.8785 68 44.5C68 43.1215 69.1218 42 70.5007 42C71.8797 42 73 43.1215 73 44.5C73 45.8785 71.8782 47 70.5007 47ZM70.5007 43.4775C69.9362 43.4775 69.478 43.9371 69.478 44.5C69.478 45.0629 69.9376 45.5225 70.5007 45.5225C71.0639 45.5225 71.522 45.0629 71.522 44.5C71.522 43.9371 71.0624 43.4775 70.5007 43.4775Z" fill="black" stroke="black" stroke-width="0.5"/>
<path d="M14.3632 136C12.9542 136 12.2567 133.769 12.0231 132.811C12.0001 132.714 11.9939 132.614 12.0062 132.513L15.6693 102.695C15.7184 102.299 16.0442 102 16.4314 102L22.2317 102.002C22.4607 102.002 22.6789 102.107 22.8248 102.291C22.9708 102.474 23.0292 102.715 22.9862 102.949C22.9478 103.154 19.0942 123.677 17.1197 131.521C16.3284 134.66 15.5033 136 14.3632 136ZM13.5473 132.561C13.7578 133.34 14.1189 134.138 14.3602 134.372C14.5307 134.207 15.0193 133.55 15.6309 131.122C17.3502 124.292 20.5139 107.73 21.2975 103.595H17.1059L13.5473 132.561Z" fill="black" stroke="black" stroke-width="0.5"/>
<path d="M96.6371 136C95.4956 136 94.6721 134.66 93.8825 131.522C91.9067 123.677 88.0521 103.153 88.0137 102.948C87.9706 102.714 88.0306 102.472 88.175 102.289C88.3194 102.107 88.5375 102 88.768 102H94.5646C94.9517 102 95.2775 102.299 95.3266 102.695L98.9939 132.515C99.0061 132.613 99 132.715 98.9754 132.812C98.7419 133.769 98.0444 136 96.6371 136ZM89.7006 103.59C90.4841 107.727 93.6474 124.291 95.3666 131.12C95.978 133.548 96.4666 134.203 96.6371 134.37C96.8783 134.138 97.2394 133.34 97.4483 132.559L93.8871 103.587L89.7006 103.59Z" fill="black" stroke="black" stroke-width="0.5"/>
<g opacity="0.5">
<path d="M91.9773 88H18.0196C14.1496 88 11 84.6334 11 80.4985C11 76.3635 14.1496 73 18.0196 73H91.9757C95.8488 73 99 76.365 99 80.4985C99 84.635 95.8504 88 91.9773 88Z" fill="#2A94E2"/>
<path d="M18.0196 74.5429H91.9757C94.9952 74.5429 97.4508 77.2136 97.4508 80.4985C97.4508 83.7848 94.9952 86.4571 91.9773 86.4571H18.0196M91.9773 88H18.0196C14.1496 88 11 84.6334 11 80.4985C11 76.3635 14.1496 73 18.0196 73H91.9757C95.8488 73 99 76.365 99 80.4985C99 84.635 95.8504 88 91.9773 88Z" stroke="black" stroke-width="0.5"/>
</g>
<path d="M91.9773 88H18.0196C14.1496 88 11 84.6334 11 80.4985C11 76.3635 14.1496 73 18.0196 73H91.9757C95.8488 73 99 76.365 99 80.4985C99 84.635 95.8504 88 91.9773 88ZM18.0196 74.5429C15.0032 74.5429 12.5492 77.2136 12.5492 80.4985C12.5492 83.7848 15.0032 86.4571 18.0196 86.4571H91.9773C94.9952 86.4571 97.4508 83.7848 97.4508 80.4985C97.4508 77.2136 94.9952 74.5429 91.9757 74.5429H18.0196Z" fill="black" stroke="black" stroke-width="0.5"/>
<path d="M106.222 88H4.77784C4.34847 88 4 87.776 4 87.5C4 87.224 4.34847 87 4.77784 87H106.222C106.652 87 107 87.224 107 87.5C107 87.776 106.652 88 106.222 88Z" fill="black" stroke="black" stroke-width="0.5"/>
<path d="M105.806 104C105.361 104 105 103.658 105 103.237V82.4662L108.398 61.6449C108.466 61.2284 108.888 60.9461 109.317 61.0087C109.757 61.0728 110.058 61.4633 109.991 61.8799L106.601 82.5837L106.61 103.237C106.612 103.658 106.251 104 105.806 104Z" fill="black" stroke="black" stroke-width="0.5"/>
</svg>

<svg width="111" height="137" fill="none" xmlns="http://www.w3.org/2000/svg"><path d="M22.95 74.339L16.438 51.77l-1.487.43 6.513 22.568 1.488-.43zm73.287-22.141l-1.487-.429-6.514 22.569 1.488.429 6.513-22.569z" fill="#000" stroke="#000" stroke-width=".5"/><path d="M105.992 104H5.124a.775.775 0 01-.77-.779V83.11L1.01 62.1a.781.781 0 01.315-.758L15.288 51.34c1.306-8.326 11.354-48.043 11.787-49.754a.771.771 0 01.933-.562c.092.023 9.387 2.33 25.598 2.33 9.55 0 19.593-.789 29.841-2.344a.768.768 0 01.86.577c.434 1.708 10.468 41.366 11.781 49.736l13.561 8.917a.783.783 0 01.342.773l-3.24 21.13.011 21.078a.791.791 0 01-.225.552.762.762 0 01-.545.227zM5.894 102.443h99.328v-20.42l3.171-20.753-13.435-8.834a.786.786 0 01-.343-.542c-.98-6.926-10.244-43.756-11.63-49.242C72.9 4.152 63.02 4.91 53.606 4.912c-13.805 0-22.688-1.663-25.224-2.207-1.428 5.66-10.64 42.287-11.619 49.19a.785.785 0 01-.317.526L2.608 62.335l3.279 20.653.007 19.455z" fill="#000" stroke="#000" stroke-width=".5"/><path d="M40.5 29a2.503 2.503 0 01-2.5-2.5c0-1.378 1.121-2.5 2.5-2.5s2.5 1.122 2.5 2.5-1.121 2.5-2.5 2.5zm0-3.523a1.024 1.024 0 000 2.045 1.023 1.023 0 000-2.045zM70.5 29c-1.38 0-2.5-1.122-2.5-2.5s1.122-2.5 2.5-2.5c1.38 0 2.5 1.122 2.5 2.5S71.878 29 70.5 29zm0-3.523a1.024 1.024 0 000 2.045 1.024 1.024 0 000-2.044zM40.5 47a2.503 2.503 0 01-2.5-2.5c0-1.379 1.121-2.5 2.5-2.5s2.5 1.121 2.5 2.5-1.121 2.5-2.5 2.5zm0-3.523c-.564 0-1.023.46-1.023 1.023s.46 1.023 1.023 1.023 1.023-.46 1.023-1.023-.459-1.023-1.023-1.023zM70.5 47c-1.38 0-2.5-1.121-2.5-2.5s1.122-2.5 2.5-2.5c1.38 0 2.5 1.121 2.5 2.5S71.878 47 70.5 47zm0-3.523a1.024 1.024 0 00.001 2.046 1.024 1.024 0 000-2.046zM14.363 136c-1.409 0-2.106-2.231-2.34-3.189a.844.844 0 01-.017-.298l3.663-29.818a.779.779 0 01.762-.695l5.8.002c.23 0 .448.105.594.289a.818.818 0 01.161.658c-.038.205-3.892 20.728-5.866 28.572-.792 3.139-1.617 4.479-2.757 4.479zm-.816-3.439c.21.779.572 1.577.813 1.811.17-.165.66-.822 1.27-3.25 1.72-6.83 4.884-23.392 5.667-27.527h-4.191l-3.559 28.966zM96.637 136c-1.141 0-1.965-1.34-2.755-4.478-1.975-7.845-5.83-28.369-5.868-28.574a.826.826 0 01.161-.659.758.758 0 01.593-.289h5.797c.387 0 .713.299.762.695l3.667 29.82a.81.81 0 01-.019.297c-.233.957-.93 3.188-2.338 3.188zm-6.936-32.41c.783 4.137 3.946 20.701 5.666 27.53.611 2.428 1.1 3.083 1.27 3.25.241-.232.602-1.03.811-1.811l-3.56-28.972-4.187.003z" fill="#000" stroke="#000" stroke-width=".5"/><g opacity=".5"><path d="M91.977 88H18.02C14.15 88 11 84.633 11 80.499 11 76.364 14.15 73 18.02 73h73.956C95.849 73 99 76.365 99 80.499 99 84.635 95.85 88 91.977 88z" fill="#2A94E2"/><path d="M18.02 74.543h73.956c3.02 0 5.475 2.67 5.475 5.956 0 3.286-2.456 5.958-5.474 5.958H18.02M91.977 88H18.02C14.15 88 11 84.633 11 80.499 11 76.364 14.15 73 18.02 73h73.956C95.849 73 99 76.365 99 80.499 99 84.635 95.85 88 91.977 88z" stroke="#000" stroke-width=".5"/></g><path d="M91.977 88H18.02C14.15 88 11 84.633 11 80.499 11 76.364 14.15 73 18.02 73h73.956C95.849 73 99 76.365 99 80.499 99 84.635 95.85 88 91.977 88zM18.02 74.543c-3.017 0-5.47 2.67-5.47 5.956 0 3.286 2.453 5.958 5.47 5.958h73.957c3.018 0 5.474-2.672 5.474-5.958 0-3.285-2.456-5.956-5.475-5.956H18.02z" fill="#000" stroke="#000" stroke-width=".5"/><path d="M106.222 88H4.778c-.43 0-.778-.224-.778-.5s.348-.5.778-.5h101.444c.43 0 .778.224.778.5s-.348.5-.778.5z" fill="#000" stroke="#000" stroke-width=".5"/><path d="M105.806 104c-.445 0-.806-.342-.806-.763v-20.77l3.398-20.822c.068-.417.49-.699.919-.636.44.064.741.454.674.87l-3.39 20.705.009 20.653c.002.421-.359.763-.804.763z" fill="#000" stroke="#000" stroke-width=".5"/></svg>
